X:104
T: ES GINGEN DREI JAEGER WOHL AUF DIE BIRSCH
N: B0592
O: Europa, Mitteleuropa, Deutschland
R: Staende -, Jaeger - Lied
M: 6/8
L: 1/16
K: D
D2 | D3FA2d3cB2 | B3AA2F4
F2 | F3EF2A3EE2 | G3FF2D4
D2 | F3Ad2f3ed2 | e3dc2d4
f2 | d4f2d4A2 | d8z2

